X: 10579
T: Dot The Dragon's Eyes
R: reel
M: 4/4
K: Eminor
|:e ~B3 B2 AB|d ~B3 B2 AG|A2AB GAE2|DEGD EGeg|
e ~B3 B2 AB|d ~B3 B2 AG|1 A2 G2 E2 GA-|AA G2 gfed:|2 E ~G3 GBAG|AG E2- Egab||
a2 g2 e2 ga-|aa g2 edBd|e2 d2 B2 de-|eeed egab|
a2 g2 e2 ga-|aa g2 edBd|e2 ed egde-|eeed egab|
a2 g2 e2 ga-|aa g2 edBd|e2 d2 B2 de-|eeed eGAB|
ABGA- AABd|ABBA Bdeg|e3(e e2)eg|aAgA ed3||

